X:1
T: MacPherson of Strathmashy
C:
R:Strathspey
Q: 128
K:Cm
M:4/4
L:1/16
|:e2|B3G G3F E3C CE3|B,G,3 E3C B,6 e2|BG3 G3F E3C CE3|=B,G,3 G3B, C6 e2|
BG3 G3F E3C CE3|B,G,3 E3C B,6 e2|B3G G3F E3C DG3|=B,G,3 G3B, C6 G2|
c3d e3f g3G G3=A|Be3 G3_A B6 e2|c3d e3f g3G G3c|Gc3 d3=B c6 d2|
e3f g3e fd3 b3d|BG3 e3c B6 a2|g3f e3d c3d e3g|Gc3 d3=B c6:|
